X:1
T:Title
%%score { 1 | 2 }
L:1/8
Q:1/4=100
M:4/4
K:A
V:1 treble nm="Grand Piano"
V:2 bass 
V:1
 [CE]2 [CE]>[=CF] [^CE]2 [EA]>[FB] | [Ec]2 [Ec]>[DEB] [CEA]4 | %2
w: Chas.~H.~Gabriel * * * * *||
 [FA]2 [E=G]>[FA] [^GB]>[GB] [FA]>[DF] | [CE]6 [CE]2 | E2 B>^A B2 c>B | A2 A>B c2 [Ec]2 | %6
w: ||||
 [EB]2 [EB]>[Ec] [^DB]>[DA] [DG]>[DF] | E4- (3EE-[EF] (3GAB | %8
w: ||
 [Ec]2 [Ec]>[Ec] (3[Ec][DB][CA] (3[CE][A,C][CE] | [CA]>[B,G] [CA]>[DB] [Ec]4 | d2 d>d (3dcB (3GEG | %11
w: |||
 [CA]>[B,G] [CA]>[DB] [Ec]4 | [Ee]2 (3[Ee][Ed][Ec] [FB]2 [DF]2 | [Fd]2 (3[Fd][Fc][FB] [FA]2 G>F | %14
w: |||
 E>A c>e d2 G2 | [CEA]6 z2 |] %16
w: ||
V:2
 [A,,A,]2 [A,,A,]>[A,,A,] [A,,A,]2 [C,A,]>[D,A,] | [E,A,]2 [E,A,]>D, A,,4 | %2
 [D,D]2 [D,D]>[D,D] [D,D]>[D,D] [D,D]>[D,A,] | [A,,A,]6 [A,,A,]2 | %4
 [E,G,D]2 [E,G,D]>[E,=G,C] [E,^G,D]2 [E,G,E]>[E,G,D] | [F,A,C]2 [F,A,C]>[E,G,E] [A,E]2 [A,,A,]2 | %6
 [B,,G,]2 [B,,G,]>[B,,A,] [B,,F,]>[B,,F,] [B,,B,]>[B,,A,] | [E,G,]6 z2 | %8
 [A,,A,]2 [A,,A,]>[A,,A,] (3[A,,A,][A,,A,][A,,A,] (3[A,,A,][A,,E,][A,,A,] | %9
 [A,,E,]>[A,,E,] [A,,E,]>[A,,E,] [A,,A,]4 | %10
 [E,B,E]2 [E,B,E]>[E,B,E] (3[E,B,E][E,A,E][E,G,E] (3[E,B,D][E,G,D][E,D] | %11
 [A,,E,]>[A,,E,] [A,,E,]>[A,,E,] [A,,A,]4 | [A,C]2 (3[A,,C][B,,B,][C,A,] [D,A,]2 [D,A,]2 | %13
 [B,,B,]2 (3[B,,B,][C,^A,][D,B,] [^D,=C]2 [D,A,C]2 | %14
 [E,A,C]>[E,A,C] [E,A,E]>[E,CE] [E,B,E]2 [E,DE]2 | A,,6 z2 |] %16

